dist/img/blog/8.svg

<svg width="25" height="25" viewBox="0 0 25 25" fill="none" xmlns="http://www.w3.org/2000/svg">
<path d="M17.9322 19.6285L16.2767 9.84316C18.293 7.96155 19.9286 6.43014 20.1401 6.21654C20.6737 5.67779 21.3505 3.7739 20.7884 3.21188C20.2265 2.64998 18.32 3.32415 17.7838 3.86023C17.4634 4.18065 15.9668 5.77681 14.1511 7.72246L4.37187 6.06816C4.19913 6.03896 4.02284 6.09516 3.89894 6.21922L3.25014 6.86788C3.2137 6.90431 3.19673 6.9558 3.20441 7.00669C3.21193 7.05759 3.2432 7.10184 3.28864 7.12604L10.9228 11.1877C9.44279 12.7782 8.06082 14.2657 7.17863 15.2153L3.82003 15.4066L3.82018 15.4065C3.68742 15.414 3.56217 15.4702 3.4682 15.5642L3.03477 15.9976C3.00674 16.0239 2.9945 16.0628 3.00232 16.1003C3.01014 16.1379 3.03684 16.1686 3.07283 16.1816L6.46458 17.3361L6.46473 17.3362C6.55856 17.3681 6.63246 17.4418 6.66448 17.5358L7.82575 20.9349H7.8259C7.83888 20.9709 7.86971 20.9976 7.90718 21.0055C7.94465 21.0131 7.98359 21.0009 8.00985 20.973L8.44313 20.5397C8.53725 20.4456 8.59346 20.3199 8.60083 20.187L8.78789 16.8174C9.7376 15.934 11.2223 14.5528 12.8106 13.0736L16.8741 20.7116C16.8983 20.7572 16.9426 20.7884 16.9935 20.796C17.0444 20.8036 17.0959 20.7865 17.1323 20.7502L17.7811 20.1014H17.7809C17.9049 19.9775 17.9612 19.8012 17.932 19.6285L17.9322 19.6285Z" fill="#202125"/>
</svg>

<svg width="25" height="25" viewBox="0 0 25 25" fill="none" xmlns="http://www.w3.org/2000/svg"><path d="M17.932 19.628l-1.655-9.785c2.016-1.881 3.652-3.413 3.863-3.626.534-.54 1.21-2.443.648-3.005-.561-.562-2.468.112-3.004.648-.32.32-1.817 1.917-3.633 3.862l-9.78-1.654a.54.54 0 00-.472.151l-.649.649a.162.162 0 00.039.258l7.634 4.062c-1.48 1.59-2.862 3.078-3.744 4.027l-3.359.192a.54.54 0 00-.352.157l-.433.434a.11.11 0 00.038.184l3.392 1.154a.32.32 0 01.2.2l1.16 3.399a.11.11 0 00.185.038l.433-.433a.541.541 0 00.158-.353l.187-3.37 4.023-3.743 4.063 7.638a.162.162 0 00.258.038l.65-.649h-.001a.54.54 0 00.151-.473z" fill="#202125"/></svg>
